X: 1
T:My Dear Companion
C:Jean Ritchie
M:4/4
L:1/4
K:D
V:1
|z D D F|"D"A4-|A F A F|"G"D2 B,2-|B, D D F|"D"A4-
w:Oh have you seen_ my dear com-pan-ion_ for he was all
|A B A F|"A"E4-
w:_this world to me
|E D D F|"D"A4-|A F A F|"G"D2 B,2-
w:_I hear  he's gone_ to some far coun-try
w:_But now the stars_ have turned a-gainst me,
|B, D D F|"D"A D "A"E/2F/2 E|"D"D4-|D D D D|"G"B4-|B A B A
w:_and that he cares no more_ for me._ I wish I were_ a Swal-low
w:__and he cares no more_ for me._ And when the dark_ is on the
|"D"F2 A2-|A D D F/2F/2|A4-|A B A F|"A"E4-|E D D F
w:fly-in'_ I'd fly to a high_ and lone-some place_ I'd join the
w:moun-tain_ and all this_ world_ has gone to sleep._ I will go
|"D"A4-|A F A F|"G"D2 B,2-|B, D D F|"D"A4-|A D "A"E/2F/2 E
w:wild_ birds in their cry-in'_ think-ing of you_ and your_ sweet
w:down to the cold dark wa-ters_ and I will lay_ me down_ and
|"D"D3-D||
w:face._
w:weep._
